svg/pictographs/pictograph_Product-Categories_Milling-Accessories.svg

<?xml version='1.0' encoding='utf-8'?>
<svg xmlns="http://www.w3.org/2000/svg" id="Layer_1" data-name="Layer 1" width="110" height="110" viewBox="0 0 110 110">
  <path d="M55.2692,63.9719h2.9592c9.5263,0,14.2838,7.011,14.2838,14.0221v7.5232M94.6151,77.9257c-2.9023-10.3458-14.8756-18.4381-24.4475-18.4381h-14.9326M55.1553,55.0716h46.9147M94.6149,31.6598c-2.9023,10.3344-14.8757,18.347-24.4476,18.347h-14.9326M55.2689,45.5452h2.9592c9.5264,0,14.2838-7.011,14.2838-14.022v-7.5232" style="fill:none;stroke:currentColor;stroke-dasharray:.5 4;stroke-linecap:round;stroke-miterlimit:10;stroke-width:1.5" />
  <path d="M47.6203,67.3492l-12.1233-1.6516c-1.42-.1934-2.4788-1.4062-2.4788-2.8393v-15.7985c0-1.4331,1.0587-2.6459,2.4788-2.8393l12.1233-1.6516c1.7204-.2344,3.2524,1.103,3.2524,2.8393v19.1017c0,1.7363-1.5319,3.0737-3.2524,2.8393ZM33.0183,47.3663H6.413M33.0183,62.572H6.413" style="fill:none;stroke:currentColor;stroke-linecap:round;stroke-linejoin:round;stroke-width:1.5" />
</svg>

<?xml version='1.0' encoding='utf-8'?>
<svg xmlns="http://www.w3.org/2000/svg" width="110" height="110" viewBox="0 0 110 110" fill="none" stroke="currentColor" stroke-width="1.5">
<path d="M55.2692 63.9719H58.2284C67.7547 63.9719 72.5122 70.9829 72.5122 77.994V85.5172M94.6151 77.9257C91.7128 67.5799 79.7395 59.4876 70.1676 59.4876H55.235M55.1553 55.0716H102.07M94.6149 31.6598C91.7126 41.9942 79.7392 50.0068 70.1673 50.0068H55.2347M55.2689 45.5452H58.2281C67.7545 45.5452 72.5119 38.5342 72.5119 31.5232V24" stroke="currentColor" stroke-width="1.5" stroke-miterlimit="10" stroke-linecap="round" stroke-dasharray="0.5 4" fill="none" />
<path d="M7 46.6163C6.58579 46.6163 6.25 46.9521 6.25 47.3663C6.25 47.7805 6.58579 48.1163 7 48.1163V46.6163ZM7 61.822C6.58579 61.822 6.25 62.1578 6.25 62.572C6.25 62.9863 6.58579 63.322 7 63.322V61.822ZM47.8598 67.4206L47.7557 68.1633L47.7603 68.1639L47.8598 67.4206ZM35.7613 65.7247L35.8654 64.982L35.8636 64.9817L35.7613 65.7247ZM35.784 44.2136L35.8803 44.9574L35.8827 44.9571L35.784 44.2136ZM47.8712 42.6088L47.9699 43.3523L47.9707 43.3522L47.8712 42.6088ZM7 47.3663V48.1163H33.0183V47.3663V46.6163H7V47.3663ZM33.0183 62.572V61.822H7V62.572V63.322H33.0183V62.572ZM47.8598 67.4206L47.9639 66.6778L35.8654 64.982L35.7613 65.7247L35.6572 66.4675L47.7557 68.1633L47.8598 67.4206ZM35.7613 65.7247L35.8636 64.9817C34.6664 64.8169 33.7683 63.7817 33.7683 62.572H33.0183H32.2683C32.2683 64.5264 33.7148 66.2001 35.659 66.4677L35.7613 65.7247ZM33.0183 62.572H33.7683V47.3663H33.0183H32.2683V62.572H33.0183ZM33.0183 47.3663H33.7683C33.7683 46.1479 34.6741 45.1136 35.8803 44.9574L35.784 44.2136L35.6877 43.4698C33.7299 43.7234 32.2683 45.3979 32.2683 47.3663H33.0183ZM35.784 44.2136L35.8827 44.9571L47.9699 43.3523L47.8712 42.6088L47.7725 41.8654L35.6853 43.4702L35.784 44.2136ZM47.8712 42.6088L47.9707 43.3522C48.9662 43.2189 49.8528 43.9956 49.8528 44.999H50.6028H51.3528C51.3528 43.0886 49.6672 41.6117 47.7717 41.8655L47.8712 42.6088ZM50.6028 44.999H49.8528V65.0305H50.6028H51.3528V44.999H50.6028ZM50.6028 65.0305H49.8528C49.8528 66.0385 48.9615 66.8114 47.9593 66.6772L47.8598 67.4206L47.7603 68.1639C49.6491 68.4168 51.3528 66.9588 51.3528 65.0305H50.6028Z" fill="none" stroke="currentColor" stroke-width="1.5" />
</svg>
